X:3002
T:Cherry Tree Carol, The
R:March
C:Trad.
O:England
Z:Paul Hardy's Xmas Tunebook 2019 (see www.paulhardy.net). Creative Commons cc by-nc-sa licenced.
M:4/4
L:1/4
Q:1/4=140
K:G
"G"GF "Em"ED|"C"G2"Am"AB/c/|"G"d/c/B/A/"D"GF|"Em"E4|
"G"dB"Em"GG|"D"A2"G"D G/F/|"C"EC"D"DF|"G"G4|]
W:Joseph was an old man, and an old man was he,
W:when he wedded Mary in the land of Galilee.

